X: 29644
T: Northern Lass, The
R: march
M: 
K: Gminor
M:2/4
B>A GB|A>G ^FA|B>c dd|c>B A/B/c|
B>A GB|A>G ^FA|1 BA/G/ AG/^F/|G2 G2:|2 Bc d=e/^f/|g2 g>a||
|:ba/g/ f2e/d/|c>B Ag|f/g/f/d/ cB|A>G ^Fa|
ba/g/ f2e/d/|c>B A/B/c|BA/G/ AG/^F/|1 G2 Ga:|2 G2 G2||
|:B>A Bc|de cB|A>G AB|cd BA|
B>A Bc|de cB/A/|BA/G/ AG/^F/|1 G2 G>A:|2 G2 G2||
|:BA/G/ AG/^F/|GB A/B/c|BA/G/ AG/^F/|
GB A/B/c|BA/G/ AG/^F/|1 G2 GA:|2 G2 G2||

